icons/svg/emoticon-sad_24.svg

<?xml version="1.0" encoding="UTF-8"?>
<svg width="24px" height="24px" viewBox="0 0 24 24" version="1.1" xmlns="http://www.w3.org/2000/svg" xmlns:xlink="http://www.w3.org/1999/xlink">
    <!-- Generator: Sketch 57.1 (83088) - https://sketch.com -->
    <title>emoticon-sad_24</title>
    <desc>Created with Sketch.</desc>
    <g id="Icons-Webex" stroke="none" stroke-width="1" fill="none" fill-rule="evenodd">
        <g id="chat/emoticon-sad_24" fill="#171B1F">
            <g id="chat/emoticon-passive_24">
                <path d="M11.9996,1.0002 C5.9356,1.0002 0.9996,5.9352 0.9996,12.0002 C0.9996,18.0652 5.9356,23.0002 11.9996,23.0002 C18.0646,23.0002 22.9996,18.0652 22.9996,12.0002 C22.9996,5.9352 18.0646,1.0002 11.9996,1.0002 M11.9996,0.0002 C18.6166,0.0002 23.9996,5.3832 23.9996,12.0002 C23.9996,18.6172 18.6166,24.0002 11.9996,24.0002 C5.3836,24.0002 -0.0004,18.6172 -0.0004,12.0002 C-0.0004,5.3832 5.3836,0.0002 11.9996,0.0002 M17.0506,18.7692 C17.1996,19.0032 17.5116,19.0692 17.7396,18.9202 C17.9736,18.7712 18.0406,18.4612 17.8926,18.2292 C16.5956,16.2072 14.3936,15.0002 11.9996,15.0002 C9.6066,15.0002 7.4046,16.2072 6.1076,18.2292 C5.9586,18.4612 6.0266,18.7712 6.2606,18.9202 C6.4886,19.0682 6.8016,19.0022 6.9496,18.7692 C8.0616,17.0352 9.9486,16.0002 11.9996,16.0002 C14.0516,16.0002 15.9376,17.0352 17.0506,18.7692 M15.9996,9.0002 C15.4476,9.0002 14.9996,9.4482 14.9996,10.0002 C14.9996,10.5522 15.4476,11.0002 15.9996,11.0002 C16.5526,11.0002 16.9996,10.5522 16.9996,10.0002 C16.9996,9.4482 16.5526,9.0002 15.9996,9.0002 M7.9996,9.0002 C7.4476,9.0002 6.9996,9.4482 6.9996,10.0002 C6.9996,10.5522 7.4476,11.0002 7.9996,11.0002 C8.5526,11.0002 8.9996,10.5522 8.9996,10.0002 C8.9996,9.4482 8.5526,9.0002 7.9996,9.0002" id="fill"></path>
            </g>
        </g>
    </g>
</svg>

<svg width="24" height="24" xmlns="http://www.w3.org/2000/svg"><path d="M12 1C5.936 1 1 5.935 1 12s4.936 11 11 11c6.065 0 11-4.935 11-11S18.065 1 12 1m0-1c6.617 0 12 5.383 12 12s-5.383 12-12 12C5.384 24 0 18.617 0 12S5.384 0 12 0m5.05 18.77a.5.5 0 00.842-.54A6.974 6.974 0 0012 15a6.974 6.974 0 00-5.892 3.23.5.5 0 00.842.54A5.977 5.977 0 0112 16a5.979 5.979 0 015.05 2.77M16 9a1 1 0 100 2 1 1 0 000-2M8 9a1 1 0 100 2 1 1 0 000-2" fill="#171B1F" fill-rule="evenodd"/></svg>
